X:1
T:When Cockle Shells Turn Silver Bells
M:3/4
L:1/8
K:F
 z2 z cc c| c4- d- c-| A3 AA A| A4- B- A-| F3 FF F| E3-F-G-A| B3 DE C|\
 F6-| F2 z cc c| c4- d- c-| A3 AA A| A4- B- A-| F3 FF F| E3-F-G-A|\
 B3 D E3/2 C/2| F6-| F6| c2 G3 c| c2 A4| c2 G3 c| c2 AF FF| E3-F-G-A|\
 B3 DE C| F6-| F2 z cc c| c4- d- c-| A3 AA A| A4- B- A-| F3 FF F| E3-F-G-A|\
 B3 DE C| F6-| F2 z4|
